!!!OTL: Jungfer Doertchen Es ritt ein Ritter wohlgemut,
!!!ARE: Europa, Mitteleuropa, Deutschland (), Sachsen, Altmark
!!!YOR: 3, S. 104
!!    1879 gedruckt in Magdeburg
!!!SCT: Q0057b
!!!YEM: Copyright 1995, estate of Helmut Schaffrath.
**kern
*ICvox
*Ivox
*M4/4
*k[f#]
*G:
{4d
=1
4g
4g
4b
8a
8g
=2
8g
8f#
4f#
4f#}
{4d
=3
4a
8a
8a
4dd
8cc
8a
=4
8cc
8b
4b
4b}
{8g
8f#
=5
8.e
16e
8e
8e
4e}
{8a
8g
=6
8.f#
16e
8f#
8g
4a}
{4cc
=7
4b
8cc
8cc
4dd
4a
=8
8cc
8b
4b
4b}
==
!!!AGN: Ballade, Todesahnung, Tod, Selbstmord
!! Dritte und vierte Zeile = Refrain auf sinnfreie Silben.
!!!ONB: ESAC (Essen Associative Code) Database: BALLADE
!!!AMT: simple quadruple
!!!AIN: vox
!!!EED: Helmut Schaffrath
!!!EEV: 1.0
*-
